X: 1
T: Reel de Sainte-Louise
O: trad Qu\'ebec
R: reel
Z: 2010 John Chambers <jc:trillian.mit.edu>
M: C|
L: 1/8
K: D
Ad |\
"D"f2f{a}f "A7"edeg | "D"fafd "B(m)"Adfd | "Em"eA2A "A7"Acec |\
[1,3 "D"dcde f2 :|[2,4 "A7"dfec "D"d2 :|
|: ef |\
"G"gbge "A7"Aceg | "D"fafd Adfd | "A"eAAA Acec |\
[1,3 "D"dcde f{a}f :|[2,4 "A7"dfec "D"d2 :|

%%sep 1 1 500

